!!!SOCIAL_FUNCTION:	miscellaneous songs
!!!PDT:	1922
!!!OTL: No_110_Dream_Song.krn
!!!REG: Southwest
!!!LANG: Non-Tone
!!!LING_GROUP: Uto-Aztecan
**kern
*staff1
=
*clefF4
*k[f#c#g#]
*M3/4
8c#\L
8c#\J
=1
4B\
8B\L
8B\J
8c#\L
8c#\J
=2||
*M2/4
8A\L
8A\J
8B\L
8B\J
=3
8A\L
8A\J
8A\L
8B\J
=4
8A\L
8A\J
8c#\L
8c#\J
=5||
*M3/4
4B\
8B\L
8B\J
8c#\L
8c#\J
=6||
*M2/4
8A\L
8A\J
8F#\L
8B\J
=7
4A\
8A\L
8B\J
=8
8A\L
8A\J
8F#\L
8B\J
=9
4A\
8A\L
8B\J
=10
8A\L
8A\J
8F#\L
8B\J
=11
4A\
8A\L
8B\J
=12
4A\
4r
=
*-
